krita/pics/svg/diagonal-stripe.svg

<svg xmlns:dc="http://purl.org/dc/elements/1.1/" xmlns:cc="http://creativecommons.org/ns#" xmlns:rdf="http://www.w3.org/1999/02/22-rdf-syntax-ns#" xmlns="http://www.w3.org/2000/svg" xmlns:xlink="http://www.w3.org/1999/xlink" id="svg8" version="1.1" viewBox="0 0 30 30" height="30" width="30"><defs id="defs2"><pattern patternTransform="matrix(2.65953 -2.66463 13.85108 13.82458 251.253 228.626)" id="pattern2871" xlink:href="#Strips1_1white"/><pattern patternUnits="userSpaceOnUse" width="2" height="1" patternTransform="scale(10)" id="Strips1_1white"><rect style="fill:#fff;stroke:none" x="0" y="-0.5" width="1" height="2" id="rect1798"/></pattern></defs><metadata id="metadata5"><rdf:RDF><cc:Work><dc:format>image/svg+xml</dc:format><dc:type rdf:resource="http://purl.org/dc/dcmitype/StillImage"/><dc:title/><dc:date>2021</dc:date><dc:creator><cc:Agent><dc:title>Timothée Giet</dc:title></cc:Agent></dc:creator><cc:license rdf:resource="http://creativecommons.org/licenses/by-sa/4.0/"/></cc:Work><cc:License rdf:about="http://creativecommons.org/licenses/by-sa/4.0/"><cc:permits rdf:resource="http://creativecommons.org/ns#Reproduction"/><cc:permits rdf:resource="http://creativecommons.org/ns#Distribution"/><cc:requires rdf:resource="http://creativecommons.org/ns#Notice"/><cc:requires rdf:resource="http://creativecommons.org/ns#Attribution"/><cc:permits rdf:resource="http://creativecommons.org/ns#DerivativeWorks"/><cc:requires rdf:resource="http://creativecommons.org/ns#ShareAlike"/></cc:License></rdf:RDF></metadata><g transform="translate(0 -347.953)" id="layer1"><rect style="fill:#000;fill-opacity:1;stroke-width:.07512509" id="rect1800" width="30" height="29.999998" x="3.5527137e-15" y="347.95276"/><path id="path1655" transform="translate(0 347.953)" d="m0 0 30 30v-5L5 0zm10 0 20 20v-5L15 0zm10 0 10 10V5l-5-5zM0 5v5l20 20h5zm0 10v5l10 10h5zm0 10v5h5z" style="fill:#fff;fill-opacity:1;stroke:none;stroke-width:1px;stroke-linecap:butt;stroke-linejoin:miter;stroke-opacity:1"/></g></svg>

<?xml version="1.0" encoding="UTF-8" standalone="no"?>
<svg
   xmlns:dc="http://purl.org/dc/elements/1.1/"
   xmlns:cc="http://creativecommons.org/ns#"
   xmlns:rdf="http://www.w3.org/1999/02/22-rdf-syntax-ns#"
   xmlns:svg="http://www.w3.org/2000/svg"
   xmlns="http://www.w3.org/2000/svg"
   xmlns:xlink="http://www.w3.org/1999/xlink"
   id="svg8"
   version="1.1"
   viewBox="0 0 30 30"
   height="30"
   width="30">
  <defs
     id="defs2">
    <pattern
       patternTransform="matrix(2.6595295,-2.6646256,13.851079,13.824584,251.25296,228.62554)"
       id="pattern2871"
       xlink:href="#Strips1_1white" />
    <pattern
       patternUnits="userSpaceOnUse"
       width="2"
       height="1"
       patternTransform="translate(0,0) scale(10,10)"
       id="Strips1_1white">
      <rect
         style="fill:white;stroke:none"
         x="0"
         y="-0.5"
         width="1"
         height="2"
         id="rect1798" />
    </pattern>
  </defs>
  <metadata
     id="metadata5">
    <rdf:RDF>
      <cc:Work
         rdf:about="">
        <dc:format>image/svg+xml</dc:format>
        <dc:type
           rdf:resource="http://purl.org/dc/dcmitype/StillImage" />
        <dc:title></dc:title>
        <dc:date>2021</dc:date>
        <dc:creator>
          <cc:Agent>
            <dc:title>Timothée Giet</dc:title>
          </cc:Agent>
        </dc:creator>
        <cc:license
           rdf:resource="http://creativecommons.org/licenses/by-sa/4.0/" />
      </cc:Work>
      <cc:License
         rdf:about="http://creativecommons.org/licenses/by-sa/4.0/">
        <cc:permits
           rdf:resource="http://creativecommons.org/ns#Reproduction" />
        <cc:permits
           rdf:resource="http://creativecommons.org/ns#Distribution" />
        <cc:requires
           rdf:resource="http://creativecommons.org/ns#Notice" />
        <cc:requires
           rdf:resource="http://creativecommons.org/ns#Attribution" />
        <cc:permits
           rdf:resource="http://creativecommons.org/ns#DerivativeWorks" />
        <cc:requires
           rdf:resource="http://creativecommons.org/ns#ShareAlike" />
      </cc:License>
    </rdf:RDF>
  </metadata>
  <g
     transform="translate(0,-347.95276)"
     id="layer1">
    <rect
       style="fill:#000000;fill-opacity:1;stroke-width:0.07512509"
       id="rect1800"
       width="30"
       height="29.999998"
       x="3.5527137e-15"
       y="347.95276" />
    <path
       id="path1655"
       transform="translate(0,347.95276)"
       d="M 0,0 30,30 V 25 L 5,0 Z M 10,0 30,20 V 15 L 15,0 Z M 20,0 30,10 V 5 L 25,0 Z M 0,5 v 5 l 20,20 h 5 z m 0,10 v 5 l 10,10 h 5 z m 0,10 v 5 h 5 z"
       style="fill:#ffffff;fill-opacity:1;stroke:none;stroke-width:1px;stroke-linecap:butt;stroke-linejoin:miter;stroke-opacity:1" />
  </g>
</svg>
